!!!OTL: Come All Ye Old Comrades
!!!ONM: 59.
**kern
*clefG2
!Modal -- Conklin/Pearce 
*k[f#c#]
*e:
*M3/4
*MM84
{(8b
8a)
=1
4g
4f#
4e
=2
(8d
8f#)
4a}
{(8b
8a)
=3
4g
4e
4d
=4
2e}
{8e
8f#
=5
4g
4f#
4e
=6
4dd
(8b
8cc#)}
{4dd
=7
4ee
4dd
4cc#
=8
2b}
{8e
8f#
=9
4g
4f#
4e
=10
4dd
(8b
8cc#)}
{4dd
=11
4ee
4dd
4cc#
=12
2b}
{8b
8a
=13
4g
4f#
4e
=14
(8d
8f#)
4a}
{(8b
8a)
=15
4g
4e
4d
=16
2e}
==
*-
!!!CNT: Folksongs of Maritime Canada
!!!MRD: 1928///-1932///
!!!OCL: Helen Creighton
!!!YOR: Songs and Ballads from Nova Scotia
!!!PPR: J.M. Dent & Sons, Limited
!!!PPP: Toronto, Canada
!!!PDT: 1932///
!!!reprint: Dover Publications, 1992: ISBN 0-486-21703-5
!!!ENC1: Craig Stuart Sapp (music and bibliographic data)                       
!!!ENC2: Marcus Pearce (phrase markings and key designations)                   
!!!ENC3: Darrell Conklin (phrase markings and key designations)   
!!!END: 2002/04/10/
!!!EEV: 2004/06/05
!!!MPN: Mr. Patrick Williams
!!!PPG: 120
!!!EFL: 60/152
!!!ARE: Canada; Nova Scotia
!!!verses: 5
!!!VTS: 3763583523
